src/lib/packages/icons/src/assets/line/sticky-note-text-circle.svg

<svg width="24" height="24" viewBox="0 0 24 24" fill="none" xmlns="http://www.w3.org/2000/svg">
<path d="M7.36108 9.5C7.36108 9.086 7.69708 8.75 8.11108 8.75H16C16.414 8.75 16.75 9.086 16.75 9.5C16.75 9.914 16.414 10.25 16 10.25H8.11108C7.69708 10.25 7.36108 9.914 7.36108 9.5ZM12 13.25H8C7.586 13.25 7.25 13.586 7.25 14C7.25 14.414 7.586 14.75 8 14.75H12C12.414 14.75 12.75 14.414 12.75 14C12.75 13.586 12.414 13.25 12 13.25ZM22.75 11.8149C22.75 13.7469 21.9981 15.564 20.6321 16.929L16.929 20.632C15.563 21.998 13.7459 22.75 11.8159 22.75C5.98992 22.75 1.25098 18.0111 1.25098 12.1851V11.8149C1.25098 5.98894 5.98992 1.25 11.8159 1.25H12.1851C18.0111 1.25 22.75 5.98894 22.75 11.8149ZM11.8149 21.25C12.3879 21.25 12.9389 21.14 13.4719 20.979V18.666C13.4719 15.802 15.802 13.472 18.666 13.472H20.978C21.139 12.939 21.249 12.3879 21.249 11.8149C21.249 6.81594 17.1831 2.75 12.1841 2.75H11.8149C6.81594 2.75 2.75 6.81594 2.75 11.8149V12.1851C2.75 17.1841 6.81594 21.25 11.8149 21.25ZM19.571 15.868C19.848 15.592 20.091 15.291 20.302 14.972H18.667C16.63 14.972 14.9729 16.629 14.9729 18.666V20.301C15.2909 20.09 15.5919 19.847 15.8689 19.571L19.571 15.868Z" fill="currentColor"/>
</svg>

<svg xmlns="http://www.w3.org/2000/svg" width="24" height="24" fill="none"><path fill="currentColor" d="M7.361 9.5a.75.75 0 0 1 .75-.75H16a.75.75 0 0 1 0 1.5H8.111a.75.75 0 0 1-.75-.75ZM12 13.25H8a.75.75 0 0 0 0 1.5h4a.75.75 0 0 0 0-1.5Zm10.75-1.435a7.183 7.183 0 0 1-2.118 5.114l-3.703 3.703a7.186 7.186 0 0 1-5.113 2.118C5.99 22.75 1.25 18.011 1.25 12.185v-.37C1.251 5.989 5.99 1.25 11.816 1.25h.37c5.825 0 10.564 4.739 10.564 10.565ZM11.815 21.25c.573 0 1.124-.11 1.657-.271v-2.313a5.2 5.2 0 0 1 5.194-5.194h2.312c.161-.533.271-1.084.271-1.657 0-5-4.066-9.065-9.065-9.065h-.37c-4.998 0-9.064 4.066-9.064 9.065v.37c0 5 4.066 9.065 9.065 9.065Zm7.756-5.382c.277-.276.52-.577.731-.896h-1.635a3.698 3.698 0 0 0-3.694 3.694v1.635a5.85 5.85 0 0 0 .896-.73l3.702-3.703Z"/></svg>
